!!!COM: Schubert, Franz
!!!CDT: 1797/01/31/-1828/11/19/
!!!CNT: Austrian
!!!OTL@@DE: Variationen &uuml;ber ein Thema von Anselm H&uuml;ttenbrenner
!!!OTL@EN: 13 Variations on a Theme by Anselm H&uuml;ttenbrenner
!!!OKY: A Minor
!!!SCT: D 576
!!!PDT: 1867///
!!!ODT: 1817/08//
!!!YEC: Copyright 2001 by Craig Stuart Sapp
!!!YEN: United States of America
!!!OMD: Var. 5
**kern	**kern
*clefF4	*clefG2
*k[f#c#g#]	*k[f#c#g#]
*A:	*A:
*M2/4	*M2/4
*MM72	*MM72
*>[A,A,B,B1,B,B2]	*>[A,A,B,B1,B,B2]
*>A	*>A
*^	*
.	.	16ddq
4A 4c#	2e^	24cc#
.	.	24b#
.	.	24cc#
.	.	24ff#
.	.	24ee
.	.	24cc#
8B 8d	.	24cc#
.	.	24bn
.	.	24g#
8A 8c#	.	24a
.	.	24cc#
.	.	24ff#
=84	=84	=84
.	.	16ff#q
4G# 4B	2e^	24ee
.	.	24dd#
.	.	24ee
.	.	24bb
.	.	24gg#
.	.	24ee
.	.	16eeq
8F# 8A	.	24ddn
.	.	24cc#
.	.	24dd
8G# 8B	.	24ff#
.	.	24b
.	.	24ee
*v	*v	*
=85	=85
4A 4c# 4e	24cc#'
.	24dd'
.	24ee'
.	24ff#'
.	24gg#'
.	24aa'
4F# 4A 4d 4f#	24aa
.	24gg#
.	24ff#
.	24ff#
.	24ee
.	24dd
=86	=86
*^	*
2G# 2D#	8f#	24cc#
.	.	24b#
.	.	24b#'
.	8f##	24b#'
.	.	24b#'
.	.	24b#'
.	8g#	24gg#
.	.	24b#
.	.	24b#'
.	8a	24b#'
.	.	24b#'
.	.	24b#'
*v	*v	*
=87	=87
.	16aaq
4G#^ 4B#^ 4g#^	24gg#
.	24ff##
.	24gg#
.	24ggg#
.	24gg#
.	24gg#'
8A#' 8c#' 8g#'	24ggg#
.	24gg#
.	24gg#'
8B#' 8d#' 8g#'	24fff#
.	24gg#
.	24gg#'
=88	=88
*^	*
2c# 2e	4g#	24eee
.	.	24ddd#
.	.	24ccc#'
.	.	24ccc#'
.	.	24ccc#'
.	.	24ccc#'
.	4a	24ccc#
.	.	24bb
.	.	24aa'
.	.	24aa'
.	.	24aa'
.	.	24aa'
*v	*v	*
=89	=89
4E 4A 4c# 4e	24aa
.	24ff#
.	24ee'
.	24ee'
.	24ee'
.	24ee'
4E 4G# 4d 4e	24ee
.	24dd
.	24b'
.	24b'
.	24b'
.	24b#'
=90	=90
4.AA 4.E 4.A	24cc#
.	24bn
.	24a'
.	24a'
.	24a'
.	24a'
.	16bq
.	24a
.	24g#
.	24a
8r	24a#
.	24b
.	24b#
=91:|!|:	=91:|!|:
*>B	*>B
*^	*
[2A	4e	24cc#
.	.	24gg#
.	.	24aa
.	.	24cc#
.	.	24gg#
.	.	24aa
.	8e-	24b#
.	.	24gg#
.	.	24aa
.	8e	24cc#
.	.	24gg#
.	.	24aa
=92	=92	=92
8A]	4.f#	24dd
.	.	24bb
.	.	24aa
4dn	.	24ff#
.	.	24bb
.	.	24aa
.	.	24dd
.	.	24bb
.	.	24aa
8cn	8e	24ee
.	.	24bb
.	.	24aa#
=93	=93	=93
[2B	4f#	24dd#
.	.	24aa#
.	.	24bb
.	.	24dd#
.	.	24aa#
.	.	24bb
.	8f	24cc##
.	.	24aa#
.	.	24bb
.	8f#	24dd#
.	.	24aa#
.	.	24bb
=94	=94	=94
8B	4.g#	24ee
.	.	24ccc#
.	.	24bb
4en	.	24gg#
.	.	24ccc#
.	.	24bb
.	.	24ee
.	.	24ccc#
.	.	24bb
8dn	8f#	24ff#
.	.	24ccc#
.	.	24bb#
*v	*v	*
=95	=95
4c# 4f	24cc#
.	24gg#
.	24ccc#'
.	24ccc#'
.	24ccc#'
.	24ccc#'
*^	*
8A	4en	24ccc#
.	.	24aa
.	.	24cc#'
8G	.	24cc#'
.	.	24cc#'
.	.	24cc#'
*v	*v	*
=96	=96
4F# 4A 4d	24dd
.	24aa
.	24ddd
.	24ddd
.	24ddd
.	24ddd
*^	*
8F#	4A 4cn	24ddd#
.	.	24aa
.	.	24dd#
8F	.	24dd#
.	.	24dd#
.	.	24dd#
*v	*v	*
=97	=97
4E 4A 4c# 4e	24ee
.	24aa
.	24ff#
.	24ee
.	24ee
.	24ee
4E 4G# 4d 4e	24ee
.	24dd
.	24b
.	24b
.	24b
.	24b#
=98	=98
*>B1	*>B1
4.AA 4.E 4.A	24cc#
.	24bn
.	24a
.	24a
.	24a
.	24a
.	16bq
.	24a
.	24g#
.	24a
8r	24a#
.	24b
.	24b#
=99:|!	=99:|!
*>B2	*>B2
4.AA 4.E 4.A	24cc#
.	24b
.	24a
.	24a
.	24a
.	24a
.	8a
8r	8r
=|!	=|!
*-	*-
